!!!COM: Buxtehude, Dietrich
!!!CDT: ~1637///-1707/05/09/
!!!ODT: ~1694///
!!!OTL: Sonata in A Minor, Op. 1, No. 3
!!!OPS: Op. 1
!!!ONM: No. 3
!!!SCA: BuxWV 254
!!!OMD: 4. Vivace
!!!URL: http://www.lysator.liu.se/~tuben/scores
!!!ONB: Johan Tufvessons, ed.
**kern	**kern	**kern
*staff3	*staff2	*staff1
*Icemba	*Iviola	*Ivioln
*clefF4	*clefC3	*clefG2
*k[]	*k[]	*k[]
*M3/4	*M3/4	*M3/4
*MM240	*MM240	*MM240
=82-	=82-	=82-
4r	4A/	8cc\L
.	.	8dd\
8AA/L	4r	8cc\
8BB/J	.	8b\J
4C/	4r	4a/
*	*clefF4	*
=83	=83	=83
4AA/	4A\	4cc\
2D\	4.D\	4.b\
.	8F\	8a/
=84	=84	=84
2E\	4.E\	4g#/
.	.	4e/
.	8D/L	.
4r	8C/	4r
.	8BB/J	.
=85	=85	=85
2AA/	2AA/	8r
.	.	8aa\L
.	.	8ee\
.	.	8cc\
4A\	4r	8a\
.	.	8aa\J
*	*clefC3	*
=86	=86	=86
2.e\	2.r	8gg\L
.	.	8ff\
.	.	8gg\
.	.	8aa\
.	.	8gg\
.	.	8aa\J
=87	=87	=87
[2.d\	2.r	8ff\L
.	.	8ee\
.	.	8ff\
.	.	8gg\
.	.	8ff\
.	.	8gg\J
=88	=88	=88
2d\]	2.r	8ee\L
.	.	8ff\
.	.	8ee\
.	.	8ff\
[4c\	.	8ee\
.	.	8ff\J
=89	=89	=89
2c\]	2.r	8dd\L
.	.	8cc\
.	.	8dd\
.	.	8ee\
[4B\	.	8dd\
.	.	8ee\J
=90	=90	=90
2B\]	2.r	8cc\L
.	.	8dd\
.	.	8cc\
.	.	8dd\
4A\	.	8cc\
.	.	8dd\J
=91	=91	=91
2A\	2.r	8b\L
.	.	8a\
.	.	8b\
.	.	8cc\
4G#\	.	8b\
.	.	8cc\J
=92	=92	=92
2A\	2.r	8a\L
.	.	8aa\
.	.	8ee\
.	.	8ff\
4AA/	.	8gg\
.	.	8aa\J
=93	=93	=93
2E\	8r	4gg\
.	8e/L	.
.	8B/	4r
.	8G/	.
4e\	8E/	[4ccc\
.	8e/J	.
=94	=94	=94
2.d\	8d\L	4.ccc\]
.	8c\	.
.	8d\	.
.	8e\	8ccc\
.	8d\	[4bb\
.	8e\J	.
=95	=95	=95
2.c\	8c\L	4.bb\]
.	8B\	.
.	8c\	.
.	8d\	8bb\
.	8c\	[4aa\
.	8d\J	.
=96	=96	=96
2.B\	8B/L	4.aa\]
.	8c/	.
.	8B/	.
.	8c/	8aa\
.	8B/	[4gg\
.	8c/J	.
=97	=97	=97
2.A\	8A/L	4.gg\]
.	8G/	.
.	8A/	.
.	8B/	8gg\
.	8A/	[4ff#\
.	8B/J	.
=98	=98	=98
2.G\	8G/L	4.ff#\]
.	8A/	.
.	8G/	.
.	8A/	8ff\
.	8G/	[4ee\
.	8A/J	.
=99	=99	=99
2.F#\	8F#/L	4.ee\]
.	8E/	.
.	8F#/	.
.	8G/	8ee\
.	8F#/	4dd#\
.	8G/J	.
=100	=100	=100
2.E\	8E/L	2ee\
.	8F#/	.
.	8G/	.
.	8A/	.
.	8G/	4r
.	8E/J	.
=101	=101	=101
2.A\	2A/	8cc\L
.	.	8dd\
.	.	8ee\
.	.	8ff\
.	4r	8ee\
.	.	8cc\J
=102	=102	=102
2.G\	8G/L	2gg\
.	8A/	.
.	8B/	.
.	8c/	.
.	8B/	4r
.	8G/J	.
=103	=103	=103
2.c\	2c\	8ee\L
.	.	8ff\
.	.	8gg\
.	.	8aa\
.	4r	8gg\
.	.	8ee\J
=104	=104	=104
2.F#\	8A/L	2.aa\
.	8B/	.
.	8c/	.
.	8d/	.
.	8c/	.
.	8A/J	.
=105	=105	=105
2G\	4B/	8r
.	.	8gg\L
.	4r	8dd\
.	.	8b\
4c\	[4e\	8g\
.	.	8gg\J
=106	=106	=106
2A\	4.e\]	8ff\L
.	.	8ee\
.	.	8ff\
.	8e\	8gg\
4B\	[4d\	8ff\
.	.	8gg\J
=107	=107	=107
2c\	4.d\]	8ee\L
.	.	8dd\
.	.	8ee\
.	8d\	8ff\
4A\	[4c\	8ee\
.	.	8ff\J
=108	=108	=108
2F#\	4.c\]	8dd\L
.	.	8ee\
.	.	8dd\
.	8c\	8ee\
4G\	[4B/	8dd\
.	.	8ee\J
=109	=109	=109
2E\	4.B/]	8cc\L
.	.	8b\
.	.	8cc\
.	8B/	8dd\
4F#\	[4A/	8cc\
.	.	8dd\J
=110	=110	=110
2G\	4.A/]	8b\L
.	.	8cc\
.	.	8b\
.	8A/	8cc\
4E\	[4G/	8b\
.	.	8cc\J
=111	=111	=111
2C/	4.G/]	8a/L
.	.	8g/
.	.	8a/
.	8G/	8b/
4D\	4F#/	8a/
.	.	8b/J
=112	=112	=112
2GG/	2G/	8g\L
.	.	8gg\
.	.	8dd\
.	.	8b\
4r	4r	8g\
.	.	8gg\J
=113	=113	=113
2D\	8r	4.ff\
.	8d/L	.
.	8A/	.
.	8F/	8dd\
4r	8D/	4ff\
.	8d/J	.
=114	=114	=114
2AA/	4.c\	8ee\L
.	.	8aa\
.	.	8ee\
.	8A/	8cc\
4r	4c\	8a\
.	.	8aa\J
=115	=115	=115
2E\	8B/L	4.gg\
.	8e/	.
.	8B/	.
.	8G/	8ee\
4r	8E/	[4gg\
.	[8e/J	.
=116	=116	=116
4AA/	8e\L]	8gg\L]
.	8f\J	8aa\
2BB/	2d\	8ff\
.	.	8aa\
.	.	8gg\
.	.	8ff\J
*	*clefF4	*
=117	=117	=117
4C/	8r	4ee\
.	8c\L	.
4r	8G\	4r
.	8E\	.
4FF#/	8C\	4aa\
.	8c\J	.
=118	=118	=118
2GG/	8B-\L	4.aa\
.	8A\	.
.	8B-\	.
.	8c\	8aa\
4GG/	8B-\	[4gg\
.	8c\J	.
=119	=119	=119
2D\	8A\L	4.gg\]
.	8G\	.
.	8A\	.
.	8B-\	8gg\
4D\	8A\	[4ff\
.	8B-\J	.
=120	=120	=120
2BB/	8G\L	4.ff\]
.	8A\	.
.	8G\	.
.	8A\	8ff\
4C/	8G\	[4ee\
.	8A\J	.
=121	=121	=121
2AA/	8F\L	4.ee\]
.	8E\	.
.	8F\	.
.	8G\	8ee\
4BB/	8F\	[4dd\
.	8G\J	.
=122	=122	=122
2C/	8E\L	4.dd\]
.	8F\	.
.	8E\	.
.	8F\	8dd\
4EE/	8E\	[4cc\
.	8F\J	.
=123	=123	=123
2FF/	8D\L	4.cc\]
.	8C\	.
.	8D\	.
.	8E\	8cc\
4GG/	8D\	4b\
.	8E\J	.
=124	=124	=124
2CC/	8C\L	2cc\
.	8D\	.
.	8E\	.
.	8F\	.
4C/	8E\	4r
.	8C\J	.
=125	=125	=125
2F\	2F\	8a\L
.	.	8b\
.	.	8cc\
.	.	8dd\
4r	4r	8cc\
.	.	8a\J
=126	=126	=126
2D\	8D\L	2dd\
.	8E\	.
.	8F\	.
.	8G\	.
4r	8F\	4r
.	8D\J	.
=127	=127	=127
2G\	2G\	8b\L
.	.	8cc\
.	.	8dd\
.	.	8ee\
4r	4r	8dd\
.	.	8b\J
=128	=128	=128
2E\	8E\L	2ee\
.	8F\	.
.	8G\	.
.	8A\	.
4r	8G\	4r
.	8E\J	.
=129	=129	=129
2A\	2A\	8cc\L
.	.	8dd\
.	.	8ee\
.	.	8ff\
4r	4r	8ee\
.	.	8cc\J
*	*clefC3	*
=130	=130	=130
4e\	4e\	4gg\
2A\	4.A/	4.ff#\
.	8c\	8ee\
=131	=131	=131
2B\	4.B/	4dd#\
.	.	4b\
.	8A/L	.
4r	8G/	4r
.	8F#/J	.
=132	=132	=132
2E\	4E/	8r
.	.	8ee\L
.	4r	8b\
.	.	8g\
4A\	[4cc\	8e\
.	.	8ee\J
=133	=133	=133
2F#\	4.cc\]	8dd\L
.	.	8cc\
.	.	8dd\
.	8cc\	8ee\
4G\	[4b\	8dd\
.	.	8ee\J
=134	=134	=134
2E\	4.b\]	8cc\L
.	.	8b\
.	.	8cc\
.	8b\	8dd\
4F#\	[4a\	8cc\
.	.	8dd\J
=135	=135	=135
2G\	4.a\]	8b\L
.	.	8cc\
.	.	8b\
.	8a\	8cc\
4E\	[4g\	8b\
.	.	8cc\J
=136	=136	=136
2C#/	4g\]	8a/L
.	.	8g/
.	4g\	8a/
.	.	8b/
4D\	[4f#\	8a/
.	.	8b/J
=137	=137	=137
2BB/	4.f#\]	8g/L
.	.	8a/
.	.	8g/
.	8f\	8a/
4C/	[4e\	8g/
.	.	8a/J
=138	=138	=138
2AA/	4.e\]	8f#/L
.	.	8e/
.	.	8f#/
.	8e\	8g/
4BB/	4d#\	8f#/
.	.	8g/J
=139	=139	=139
2E\	2e\	8e\L
.	.	8ee\
.	.	8b\
.	.	8cc\
4EE/	4r	8dd\
.	.	8ee\J
*	*clefF4	*
=140	=140	=140
4AA/	8r	4cc\
.	8A\L	.
4r	8E\	4r
.	8C\	.
4A\	8AA\	[4ff\
.	8A\J	.
=141	=141	=141
2.G\	8G\L	4.ff\]
.	8F\	.
.	8G\	.
.	8A\	8ff\
.	8G\	[4ee\
.	8A\J	.
=142	=142	=142
2.F\	8F\L	4.ee\]
.	8E\	.
.	8F\	.
.	8G\	8ee\
.	8F\	[4dd\
.	8G\J	.
=143	=143	=143
2.E\	8E\L	4.dd\]
.	8F\	.
.	8E\	.
.	8F\	8dd\
.	8E\	[4cc\
.	8F\J	.
=144	=144	=144
2.D\	8D\L	4.cc\]
.	8C\	.
.	8D\	.
.	8E\	8cc\
.	8D\	[4b\
.	8E\J	.
=145	=145	=145
2.C/	8C/L	4.b\]
.	8D/	.
.	8C/	.
.	8D/	8b\
.	8C/	4a/
.	8D/J	.
=146	=146	=146
2.BB/	8BB/L	4.a/
.	8AA/	.
.	8BB/	.
.	8C/	8a/
.	8BB/	4g#/
.	8C/J	.
=147	=147	=147
2.AA/	8AA/L	4.a/
.	8BB/	.
.	8C/	.
.	8D/	8b\
.	8E/	4cc\
.	8AA/J	.
=148	=148	=148
4DD/	8D/L	4b\
.	8F/	.
2EE/	8E/	4.b\
.	8D/	.
.	8E/	.
.	8EE/J	8a/
=149	=149	=149
2AA/	2AA/	8a\L
.	.	8aa\
.	.	8ee\
.	.	8cc\
4r	4r	8a\
.	.	8aa\J
=150	=150	=150
2E\	8r	4gg\
.	8e\L	.
.	8B\	4r
.	8G\	.
4r	8E\	4r
.	8e\J	.
=151	=151	=151
2BB/	4d\	8r
.	.	8gg\L
.	4r	8dd\
.	.	8b\
4r	4r	8g\
.	.	8gg\J
=152	=152	=152
2C/	8r	4ee\
.	8c\L	.
.	8G\	4r
.	8E\	.
4r	8C\	4r
.	8c\J	.
=153	=153	=153
2GG/	4B\	8r
.	.	8ee\L
.	4r	8b\
.	.	8g\
4r	4r	8e\
.	.	8ee\J
=154	=154	=154
2AA/	8r	4cc\
.	8A\L	.
.	8E\	4r
.	8C\	.
4r	8AA\	4r
.	8A\J	.
=155	=155	=155
2EE/	4G\	8r
.	.	8cc/L
.	4r	8g/
.	.	8e/
4r	4r	8c/
.	.	8cc/J
=156	=156	=156
2.GG/	8r	8b\L
.	8G\L	8bb\
.	8D\	8gg\
.	8BB\	8dd\
.	8GG\	8b\
.	8G\J	8bb\J
=157	=157	=157
4r	4C/	8ee\L
.	.	8gg\
*	*clefC3	*
8C/L	8e\L	8aa\
8BB/J	8d\	8gg\J
4AA/	8c\	4ff#\
.	8d\J	.
=158	=158	=158
2E\	4B/	8gg\L
.	.	8g\
.	8G/L	8b\
.	8A/	8cc\
4BB/	8B/	8dd\
.	8c/J	8ee\J
=159	=159	=159
4C/	8A/L	8cc\L
.	8G/J	8b\
2D\	4.G/	8a\
.	.	8cc\
.	.	8b\
.	8F#/	8a\J
=160	=160	=160
2.GG/	8G\L	4.b\
.	8g\	.
.	8d\	.
.	8B\	8g/
.	8G\	4b\
.	8g\J	.
=161	=161	=161
2AA/	8f\L	4cc\
.	8e\	.
.	8f\	4r
.	8g\	.
4BB/	8f\	4dd\
.	8g\J	.
=162	=162	=162
2.C/	4.e\	8g/L
.	.	8cc/
.	.	8g/
.	8c\	8e/
.	4e\	8c/
.	.	8cc/J
=163	=163	=163
2D\	4f\	8b-\L
.	.	8a\
.	4r	8b-\
.	.	8cc\
4E\	4g\	8b-\
.	.	8cc\J
=164	=164	=164
2.F\	8c\L	4.a/
.	8f\	.
.	8c\	.
.	8A\	8f/
.	8F\	4a/
.	8f\J	.
=165	=165	=165
2c\	8e\L	2g/
.	8d\	.
.	8e\	.
.	8f\	.
4C/	8e\	4r
.	8f\J	.
=166	=166	=166
2BB/	4.d\	8r
.	.	8gg\L
.	.	8dd\
.	8d\	8b\
4E\	4B/	8g\
.	.	8gg\J
=167	=167	=167
2AA/	4c\	8ff\L
.	.	8ee\
.	4r	8ff\
.	.	8gg\
4BB/	4d\	8ff\
.	.	8gg\J
=168	=168	=168
2.C/	8G/	4.ee\
*	*clefF4	*
.	8c\L	.
.	8G\	.
.	8E\	8cc\
.	8C\	4ee\
.	8c\J	.
=169	=169	=169
2D\	8B-\L	4ff\
.	8A\	.
.	8B-\	4r
.	8c\	.
4E\	8B-\	4gg\
.	8c\J	.
=170	=170	=170
4.F\	8A\L	4.cc\
.	8B-\	.
.	8A\	.
8E\	8G\	8cc\L
[4D\	8F\	8dd\
.	8E\J	8ee\J
=171	=171	=171
4.D\]	8D/L	8ff\L
.	8E/	8gg\
.	8D/	8ff\
8C/L	8C/	8ee\
8BB/	8BB/	8dd\
8AA/J	8AA/J	8cc\J
=172	=172	=172
2.E\	2.E\	8b\L
.	.	8ee\
.	.	8b\
.	.	8g#\
.	.	8e\
.	.	8ee\J
=173	=173	=173
2F\	2.r	8dd\L
.	.	8cc\
.	.	8dd\
.	.	8ee\
4G#\	.	8dd\
.	.	8ee\J
*	*clefC3	*
=174	=174	=174
2.A\	8r	4.cc\
.	8a\L	.
.	8e\	.
.	8c\	8a/
.	8A\	4cc\
.	8a\J	.
=175	=175	=175
2e\	8g\L	4b\
.	8f\	.
.	8g\	4e/
.	8a\	.
4r	8g\	[4ee\
.	8a\J	.
=176	=176	=176
2f\	8f\L	4ee\]
.	8e\	.
.	8f\	4dd\
.	8g\	.
4r	8f\	4aa\
.	8g\J	.
=177	=177	=177
2e\	8e\L	4gg\
.	8f\	.
.	8e\	4cc\
.	8f\	.
4r	8e\	4gg\
.	8f\J	.
=178	=178	=178
2d\	8d\L	4ff\
.	8c\	.
.	8d\	4b\
.	8e\	.
4r	8d\	4ff\
.	8e\J	.
=179	=179	=179
2c\	8c\L	4ee\
.	8d\	.
.	8c\	4a/
.	8d\	.
4r	8c\	4ee\
.	8d\J	.
=180	=180	=180
2B\	8B/L	4dd\
.	8A/	.
.	8B/	4g#/
.	8c/	.
4r	8B/	4dd\
.	8c/J	.
=181	=181	=181
4A\	4A/	8cc\L
.	.	8aa\
4r	4r	8ee\
.	.	8cc\
4d\	[4f\	8a\
.	.	8aa\J
=182	=182	=182
2B\	4.f\]	8gg\L
.	.	8ff\
.	.	8gg\
.	8f\	8aa\
4c#\	[4e\	8gg\
.	.	8aa\J
=183	=183	=183
4d\	4.e\]	8ff\L
.	.	8ee\
4A\	.	8ff\
.	8e\	8gg\
4B\	[4d\	8ff\
.	.	8gg\J
=184	=184	=184
4c\	4.d\]	8ee\L
.	.	8ff\
4G#\	.	8ee\
.	8d\	8ff\
4A\	[4c\	8ee\
.	.	8ff\J
=185	=185	=185
4B\	4.c\]	8dd\L
.	.	8cc\
4F#\	.	8dd\
.	8c\	8ee\
4G#\	[4B/	8dd\
.	.	8ee\J
=186	=186	=186
2.A\	4B/]	4cc\
.	8A/L	8cc\L
.	8G#/	8b\
.	8A/	8cc\
.	8B/J	8dd\J
=187	=187	=187
4AA/	4c\	4ee\
2FF/	4.d\	4.a/
.	8d\	8b\
=188	=188	=188
2.EE;/	2.e;\	2.g#;/
==	==	==
*-	*-	*-
!!!ENC: Craig Stuart Sapp
!!!END: 2004/12/15/
